!!!OTL: IHR LIEBEN CHRISTEN
!!!ARE: Europa, Mitteleuropa, Deutschland, Hessen, Taunus, Wuerges
!!!SCT: E1583A
!!!YEM: Copyright 1995, estate of Helmut Schaffrath.
**kern
*ICvox
*Ivox
!! Mixed meters:  3/8; 2/4
*M3/8
*k[f#]
*G:
{8d
=1
4g
8f#
=2
8g
8a
8b
=3
8a
8g
8a
=4
4g}
{16g
16a
=5
4b
8cc
=6
4dd
8dd
=7
8dd
8cc
8cc
=8
4b}
{16dd
16dd
=9
8dd
8cc
8cc
=10
4cc}
{8cc
=11
4b
8dd
=12
8.b
16a
8a}
=13
{8d
=14
*M2/4
8g
8a
8b
8cc
=15
*M3/8
8dd
8dd
8r}
=16
{16g
16a
=17
*M2/4
8b
8dd
8b
8g
=18
8a
8g
8r}
==
!!!AGN: Staende - Lied, Nachtwaechter
!!!ONB: ESAC (Essen Associative Code) Database: ERK3
!!!AMT: irregular
!!!AIN: vox
!!!EED: Helmut Schaffrath
!!!EEV: 1.0
*-
